neru-light-classic/22x22/actions/seahorse-sign-bad.svg

<svg xmlns="http://www.w3.org/2000/svg" width="22" height="22"><defs><style id="current-color-scheme" type="text/css">.ColorScheme-Text{color:#1e333d}</style></defs><path class="ColorScheme-Text" d="M14 14v1c0 .28.1.54.28.72l.78.78-.78.78c-.18.18-.28.44-.28.72v1h1c.28 0 .54-.1.72-.28l.78-.78.78.78c.18.18.44.28.72.28h1v-1c0-.28-.1-.54-.28-.72l-.78-.78.78-.78c.18-.18.28-.44.28-.72v-1h-1c-.28 0-.54.1-.72.28l-.78.78-.78-.78c-.18-.18-.44-.28-.72-.28z" fill="currentColor"/><g opacity=".3"><path class="ColorScheme-Text" d="M8 14v5l3-2 2 1v-4" fill="currentColor"/><path class="ColorScheme-Text" d="M11 4a6 6 0 0 0-6 6 6 6 0 0 0 6 6 6 6 0 0 0 2-.344v-2.191A4 4 0 0 1 11 14a4 4 0 0 1-4-4 4 4 0 0 1 4-4 4 4 0 0 1 4 4 4 4 0 0 1-1.355 3h2.55A6 6 0 0 0 17 10a6 6 0 0 0-6-6zm0 3a3 3 0 0 0-3 3 3 3 0 0 0 3 3 3 3 0 0 0 3-3 3 3 0 0 0-3-3z" fill="currentColor"/></g></svg>

<svg xmlns="http://www.w3.org/2000/svg" width="22" height="22" version="1.1">
 <defs>
  <style id="current-color-scheme" type="text/css">
   .ColorScheme-Text { color:#1e333d; } .ColorScheme-Highlight { color:#3fb7ff; }
  </style>
 </defs>
 <path style="fill:currentColor" class="ColorScheme-Text" d="M 14,14 V 15 C 14,15.28 14.1,15.54 14.28,15.72 L 15.06,16.5 14.28,17.28 C 14.1,17.46 14,17.72 14,18 V 19 H 15 C 15.28,19 15.54,18.9 15.72,18.72 L 16.5,17.94 17.28,18.72 C 17.46,18.9 17.72,19 18,19 H 19 V 18 C 19,17.72 18.9,17.46 18.72,17.28 L 17.94,16.5 18.72,15.72 C 18.9,15.54 19,15.28 19,15 V 14 H 18 C 17.72,14 17.46,14.1 17.28,14.28 L 16.5,15.06 15.72,14.28 C 15.54,14.1 15.28,14 15,14 Z"/>
 <g style="opacity:0.3" transform="translate(3,3)">
  <path style="fill:currentColor" class="ColorScheme-Text" d="M 5,11 V 16 16 L 8,14 10,15 V 11"/>
  <path style="fill:currentColor" class="ColorScheme-Text" d="M 8 1 A 6 6 0 0 0 2 7 A 6 6 0 0 0 8 13 A 6 6 0 0 0 10 12.656 L 10 10.465 A 4 4 0 0 1 8 11 A 4 4 0 0 1 4 7 A 4 4 0 0 1 8 3 A 4 4 0 0 1 12 7 A 4 4 0 0 1 10.645 10 L 13.195 10 A 6 6 0 0 0 14 7 A 6 6 0 0 0 8 1 z M 8 4 A 3 3 0 0 0 5 7 A 3 3 0 0 0 8 10 A 3 3 0 0 0 11 7 A 3 3 0 0 0 8 4 A 3 3 0 0 0 8 4 z"/>
 </g>
</svg>
